icons/vanillaextract.svg

<svg width="16" height="16" viewBox="0 0 16 16" fill="none" xmlns="http://www.w3.org/2000/svg">
<path d="M4.06372 5.96419C2.63983 6.07512 2.80932 7.2173 3.3995 7.56986C3.98967 7.92241 5.71087 8.69696 8.87545 8.46518C12.2716 8.21644 12.8644 7.18452 13.0353 6.47068C13.0353 6.32606 13.0354 5.84807 12.6416 5.84807C11.2786 7.29793 8.49973 6.82953 7.63097 6.65365C6.46214 6.41703 4.9079 5.89842 4.06372 5.96419Z" fill="#D9D9D9"/>
<path d="M4.06372 5.96419C2.63983 6.07512 2.80932 7.2173 3.3995 7.56986C3.98967 7.92241 5.71087 8.69696 8.87545 8.46518C12.2716 8.21644 12.8644 7.18452 13.0353 6.47068C13.0353 6.32606 13.0354 5.84807 12.6416 5.84807C11.2786 7.29793 8.49973 6.82953 7.63097 6.65365C6.46214 6.41703 4.9079 5.89842 4.06372 5.96419Z" fill="#F7639C"/>
<path d="M4.24038 4.74407C3.85567 5.01804 3.85928 5.54133 3.91802 5.69594C4.21422 5.2673 5.50674 5.58494 6.52812 5.8078C7.5495 6.03066 9.11159 6.40191 10.5609 5.98391C12.7904 5.34092 12.2517 2.98266 11.0002 2.98267C10.7915 4.33998 10.1064 4.63667 9.54969 4.74407C8.59023 4.92916 7.64369 4.78368 6.60719 4.64046C5.57069 4.49724 4.72126 4.40161 4.24038 4.74407Z" fill="#FF87B6"/>
<path d="M6.84597 2.68618C5.03621 2.68618 4.96701 3.50598 4.96701 4.01147C5.62381 3.52974 7.392 4.38871 8.65572 4.30539C8.95455 4.28569 10.6308 4.22863 10.216 2.332C9.90094 0.89121 8.01687 0.879611 8.03694 0.959903C8.17076 1.28107 8.65572 2.68618 6.84597 2.68618Z" fill="#FF87B6"/>
<path d="M3.19821 8.53679C2.85985 8.57909 3.05135 8.96209 3.35799 9.15242C5.94078 11.0769 9.89464 11.0268 11.4209 10.2741C12.9471 9.52148 13.1627 8.14604 12.782 7.64907C12.1014 8.93243 9.07569 9.20144 7.32327 9.15242C4.86251 9.08359 3.53657 8.4945 3.19821 8.53679Z" fill="#F04987"/>
<path d="M4.56348 10.7588C4.74371 10.7592 4.89015 10.8884 4.91211 11.0547C4.98529 10.9895 5.08341 10.9504 5.19141 10.9502C5.41797 10.9502 5.60242 11.1248 5.60254 11.3408C5.60245 11.3453 5.60077 11.35 5.60059 11.3545C5.67434 11.251 5.79932 11.1827 5.94043 11.1826C6.15835 11.1826 6.33431 11.3452 6.34766 11.5498C6.41645 11.4256 6.55245 11.3408 6.70996 11.3408C6.86504 11.3408 6.9986 11.4239 7.06836 11.5449C7.14085 11.4831 7.23592 11.4444 7.34082 11.4443C7.49761 11.4444 7.6331 11.5291 7.70215 11.6523C7.77117 11.5292 7.90585 11.4445 8.0625 11.4443C8.22944 11.4443 8.37242 11.5403 8.43652 11.6768C8.50054 11.5402 8.64457 11.4444 8.81152 11.4443C8.93434 11.4445 9.04304 11.4975 9.11816 11.5791C9.18052 11.439 9.3274 11.341 9.49707 11.3408C9.62287 11.3409 9.73438 11.3963 9.80957 11.4814C9.85353 11.3105 10.0152 11.1826 10.208 11.1826C10.328 11.1828 10.4349 11.234 10.5098 11.3125C10.5251 11.1098 10.7015 10.9503 10.918 10.9502C10.9889 10.9503 11.0551 10.9678 11.1133 10.998C11.1618 10.8692 11.2905 10.7764 11.4424 10.7764C11.6499 10.7766 11.7826 10.8961 11.7764 11.1416L11.7783 11.1406C11.7782 13.1272 10.0873 14.7372 8.00098 14.7373C5.91453 14.7373 4.22273 13.1273 4.22266 11.1406C4.23528 10.9822 4.36341 10.7588 4.56348 10.7588Z" fill="#11BEE2"/>
<path d="M8.07831 12.0149C8.17756 12.0208 8.27653 12.0645 8.34296 12.1477C8.39275 12.2102 8.41911 12.2887 8.42108 12.3772L8.41522 12.469C8.38525 12.6676 8.27932 13.2688 8.20428 13.7415L8.14374 14.1516C8.13572 14.2116 8.07995 14.2573 8.01385 14.2581C7.96415 14.2585 7.91951 14.2334 7.89667 14.1956L7.88104 14.1536C7.84633 13.9259 7.79547 13.5258 7.75311 13.1633C7.73219 12.9843 7.71337 12.8107 7.6994 12.6712L7.67694 12.3811C7.67709 12.1423 7.87854 12.0032 8.07831 12.0149ZM7.91718 13.426L8.0119 14.137L7.8869 13.1633C7.89705 13.2499 7.90643 13.3385 7.91718 13.426ZM6.63202 11.9172C6.72865 11.899 6.81695 11.9368 6.88007 12.0012C6.93995 12.0625 6.98407 12.1528 7.01581 12.2659L7.05975 12.4397C7.10162 12.6255 7.14149 12.8454 7.18866 13.0598C7.2533 13.3535 7.33366 13.6506 7.45819 13.8958C7.48586 13.9503 7.46562 14.0155 7.41034 14.0481C7.35489 14.0807 7.28137 14.0704 7.23846 14.0247C6.89439 13.6578 6.45434 13.138 6.38593 12.4172L6.37714 12.2708V12.2639L6.383 12.2053C6.39276 12.1487 6.41308 12.0953 6.44257 12.0501C6.48068 11.9916 6.54388 11.934 6.63202 11.9172ZM9.46503 11.9172C9.55315 11.9339 9.61632 11.9916 9.65448 12.0501C9.68395 12.0953 9.70428 12.1487 9.71405 12.2053L9.72089 12.2639V12.2708L9.71112 12.4172C9.64269 13.1382 9.20268 13.6578 8.85858 14.0247C8.81573 14.0703 8.7431 14.0805 8.68768 14.0481C8.63231 14.0155 8.61117 13.9504 8.63885 13.8958C8.76344 13.6505 8.84471 13.3536 8.90936 13.0598C8.95653 12.8454 8.99641 12.6255 9.03827 12.4397L9.08124 12.2659C9.11301 12.1526 9.15797 12.0625 9.21796 12.0012C9.281 11.9369 9.36855 11.8992 9.46503 11.9172ZM7.33807 13.9465C7.33761 13.9456 7.33756 13.9445 7.3371 13.9436C7.29236 13.8959 7.24569 13.8465 7.1994 13.7942L7.33807 13.9465ZM5.3078 11.6233C5.47174 11.6589 5.59546 11.8191 5.65741 12.0403L5.70819 12.2092C5.76845 12.3928 5.85558 12.6173 5.96991 12.844C6.12316 13.1478 6.32243 13.4482 6.56561 13.6614L6.59491 13.6985C6.61497 13.7394 6.60866 13.7891 6.57538 13.8254C6.53074 13.874 6.45175 13.8833 6.39569 13.846C6.16283 13.6901 5.81602 13.4093 5.52362 13.0706C5.25183 12.7556 5.01309 12.3739 4.97675 11.9846L4.97284 11.9075V11.9006L4.98065 11.8391C4.99304 11.7805 5.0202 11.7264 5.06561 11.6848C5.12997 11.626 5.21937 11.6043 5.3078 11.6233ZM10.6359 11.6233C10.7244 11.6043 10.8138 11.626 10.8781 11.6848C10.9237 11.7265 10.9517 11.7804 10.9641 11.8391L10.9719 11.9006V11.9075L10.967 11.9846C10.9306 12.3739 10.6919 12.7556 10.4201 13.0706C10.1277 13.4093 9.78086 13.6902 9.54803 13.846C9.49198 13.8833 9.41296 13.874 9.36835 13.8254C9.33512 13.789 9.32961 13.7394 9.34979 13.6985L9.37811 13.6614C9.62127 13.4482 9.82057 13.1478 9.97382 12.844C10.0881 12.6173 10.1753 12.3928 10.2355 12.2092L10.2873 12.0403C10.3492 11.8192 10.4721 11.659 10.6359 11.6233ZM6.32538 13.5999C6.37169 13.6501 6.41865 13.699 6.46893 13.7434C6.47066 13.7446 6.4721 13.7462 6.47382 13.7473C6.42185 13.7017 6.37312 13.6517 6.32538 13.5999ZM9.47382 13.7424C9.52684 13.6956 9.57755 13.6453 9.62616 13.592C9.57755 13.6453 9.52683 13.6956 9.47382 13.7424ZM6.79315 13.2444C6.873 13.3828 6.9643 13.5095 7.0578 13.6262L6.92108 13.4436C6.83222 13.3161 6.74989 13.1779 6.6828 13.0276L6.79315 13.2444ZM6.97089 12.6575C7.00186 12.8103 7.03471 12.9771 7.07343 13.1467C7.0178 12.9029 6.97552 12.6647 6.93085 12.4661L6.88885 12.2962L6.97089 12.6575ZM9.16718 12.4661C9.15638 12.5141 9.14565 12.5643 9.13495 12.6165C9.15917 12.4985 9.18298 12.3897 9.20917 12.2962L9.16718 12.4661ZM5.65253 12.4436C5.66085 12.4656 5.67095 12.4874 5.67987 12.51C5.66741 12.4785 5.65503 12.4476 5.64374 12.4172L5.65253 12.4436ZM7.89178 12.1926C7.86901 12.2116 7.85049 12.2359 7.83612 12.2639C7.85828 12.2207 7.8919 12.1878 7.93182 12.1663L7.89178 12.1926ZM10.4142 12.0696L10.3723 12.2092C10.3883 12.1591 10.4033 12.1123 10.4152 12.0696C10.4298 12.0175 10.4467 11.972 10.466 11.9329L10.4142 12.0696ZM9.40839 12.0335C9.36754 12.0367 9.32495 12.0627 9.28632 12.1184L9.31659 12.0823C9.34672 12.0515 9.37785 12.036 9.40839 12.0335Z" fill="#006AA4"/>
</svg>

<svg xmlns="http://www.w3.org/2000/svg" width="16" height="16" fill="none" viewBox="0 0 16 16"><path fill="#D9D9D9" d="M4.064 5.964C2.64 6.075 2.809 7.217 3.4 7.57c.59.352 2.31 1.127 5.475.895 3.397-.249 3.99-1.28 4.16-1.994 0-.145 0-.623-.393-.623-1.363 1.45-4.142.982-5.011.806-1.169-.237-2.723-.756-3.567-.69"/><path fill="#F7639C" d="M4.064 5.964C2.64 6.075 2.809 7.217 3.4 7.57c.59.352 2.31 1.127 5.475.895 3.397-.249 3.99-1.28 4.16-1.994 0-.145 0-.623-.393-.623-1.363 1.45-4.142.982-5.011.806-1.169-.237-2.723-.756-3.567-.69"/><path fill="#FF87B6" d="M4.24 4.744c-.384.274-.38.797-.322.952.296-.429 1.589-.111 2.61.112 1.022.223 2.584.594 4.033.176 2.23-.643 1.69-3.001.44-3.001-.21 1.357-.895 1.654-1.451 1.761-.96.185-1.906.04-2.943-.104-1.036-.143-1.886-.238-2.367.104"/><path fill="#FF87B6" d="M6.846 2.686c-1.81 0-1.879.82-1.879 1.325.657-.481 2.425.378 3.689.294.299-.02 1.975-.076 1.56-1.973C9.901.892 8.016.88 8.036.96c.135.321.62 1.726-1.19 1.726"/><path fill="#F04987" d="M3.198 8.537c-.338.042-.147.425.16.615 2.583 1.925 6.537 1.875 8.063 1.122s1.742-2.128 1.361-2.625c-.68 1.283-3.706 1.552-5.459 1.503-2.46-.068-3.786-.657-4.125-.615"/><path fill="#11BEE2" d="M4.563 10.759c.18 0 .327.13.35.296a.42.42 0 0 1 .278-.105c.227 0 .411.175.412.39l-.002.014a.42.42 0 0 1 .34-.171.4.4 0 0 1 .407.367.41.41 0 0 1 .362-.21c.155 0 .289.084.358.205a.42.42 0 0 1 .634.107.41.41 0 0 1 .36-.208c.167 0 .31.096.375.233a.416.416 0 0 1 .682-.098.41.41 0 0 1 .378-.238c.126 0 .237.055.313.14a.41.41 0 0 1 .398-.298c.12 0 .227.051.302.13a.4.4 0 0 1 .408-.363q.107.001.195.048a.35.35 0 0 1 .33-.222c.207 0 .34.12.333.366l.002-.001c0 1.986-1.69 3.596-3.777 3.596-2.086 0-3.778-1.61-3.778-3.596.012-.159.14-.382.34-.382"/><path fill="#006AA4" d="M8.078 12.015c.1.006.199.05.265.133q.075.094.078.23l-.006.091c-.03.199-.136.8-.21 1.273l-.061.41c-.008.06-.064.105-.13.106a.14.14 0 0 1-.117-.062l-.016-.042a34 34 0 0 1-.182-1.483l-.022-.29c0-.239.202-.378.401-.366m-.16 1.411.094.711-.125-.974zm-1.286-1.509a.27.27 0 0 1 .248.084q.089.094.136.265l.044.174c.042.186.081.405.129.62.064.293.145.59.27.836a.115.115 0 0 1-.049.152.14.14 0 0 1-.172-.023c-.344-.367-.784-.887-.852-1.608l-.009-.146v-.007l.006-.059q.015-.086.06-.155a.3.3 0 0 1 .189-.133m2.833 0a.3.3 0 0 1 .19.133q.044.07.06.155l.006.059v.007l-.01.146c-.068.721-.508 1.24-.852 1.608a.14.14 0 0 1-.171.023.115.115 0 0 1-.05-.152c.125-.246.207-.542.271-.836.048-.215.087-.434.13-.62l.042-.174A.6.6 0 0 1 9.218 12a.27.27 0 0 1 .247-.084m-2.127 2.03v-.003q-.069-.072-.139-.15zm-2.03-2.324c.164.036.287.196.35.417l.05.17c.06.183.148.407.262.634.153.304.352.604.596.817l.029.037a.11.11 0 0 1-.02.127.14.14 0 0 1-.18.021 4.6 4.6 0 0 1-.871-.775c-.272-.315-.51-.697-.547-1.086l-.004-.077V11.9l.008-.062a.3.3 0 0 1 .085-.154.27.27 0 0 1 .242-.062m5.328 0a.27.27 0 0 1 .328.216l.008.062v.007l-.005.077c-.036.389-.275.77-.547 1.086a4.6 4.6 0 0 1-.872.775.14.14 0 0 1-.18-.02.11.11 0 0 1-.018-.128l.028-.037c.243-.213.443-.513.596-.817.114-.227.201-.451.261-.635l.052-.169c.062-.22.185-.381.349-.417M6.326 13.6q.069.076.143.143l.005.004a2 2 0 0 1-.149-.147m.468-.356c.079.139.17.265.264.382l-.137-.182a2.5 2.5 0 0 1-.238-.416zm.177-.586c.03.152.064.32.102.489-.055-.244-.097-.482-.142-.68l-.042-.17zm2.196-.192.042-.17zm-3.514-.022.027.066-.036-.093zm2.239-.251a.2.2 0 0 0 .04-.027zm2.522-.123-.042.14za1 1 0 0 1 .051-.137zm-1.006-.037q-.062.004-.122.085l.03-.036a.15.15 0 0 1 .092-.049"/></svg>
